X:1
T:Cœlites Plaudant, 11.11.11.5
T:Cœlites Plaudant, 11.11.11.5
T:Rouen church melody
T:Public Domain Courtesy of the Cyber Hymnal™
C:Rouen church melody
Z:Public Domain
Z:Courtesy of the Cyber Hymnal™
%%score ( 1 2 ) ( 3 4 )
L:1/8
Q:1/4=115
M:2/2
K:C
V:1 treble 
V:2 treble 
V:3 bass 
V:4 bass 
V:1
 [Ec]4 [CG]2 [CA]2 | (G3 F) [CE]4 | [CA]3 [B,B] [CG]2 [Cc]2 | (c2 B2) [Ec]4 | [Ec]4 [Gd]2 [Gd]2 | %5
 ([Ge]2 [Ec]2) [DA]4 | [Dd]3 [DA] [DB]2 [Ec]2 | (B2 A2) [B,G]4 | [CE]4 [CF]2 [B,G]2 | %9
 [A,F]2 [^CE]2 D4 | [CA]3 [DB] [Cc]2 [CA]2 | ([Fd]2 [Ec]2) [EB]4 | (G3 F) [CE]2 [DF]2 | %13
 ([CE]4 [B,D]4) | [G,C]8 |] %15
V:2
 x8 | B,4 x4 | x8 | G4 x4 | x8 | x8 | x8 | D4 x4 | x8 | x4 D4 | x8 | x8 | D4 x4 | x8 | x8 |] %15
V:3
 [C,G,]4 [E,G,]2 F,2 | [G,,G,]4 [C,G,]4 | [F,A,]3 [D,F,] [E,G,]2 [F,A,]2 | [G,D]4 [C,C]4 | %4
 [A,,C]4 [G,,B,]2 [G,,B,]2 | C4 [D,^F,]4 | [B,,G,]3 [D,^F,] [G,,G,]2 [C,G,]2 | %7
 (G,2 ^F,2) [G,,G,]4 | [C,G,]4 [A,,F,]2 [G,,D,]2 | [D,F,]2 [A,,A,]2 [D,F,]4 | %10
 F,3 [D,F,] [E,G,]2 [F,A,]2 | ([D,A,]2 A,2) [E,G,]4 | [G,,B,]4 [A,,A,]2 [D,A,]2 | G,4- G,4 | %14
 [C,,C,E,]8 |] %15
V:4
 x6 F,2 | x8 | x8 | x8 | x8 | (C,2 A,,2) x4 | x8 | D,4 x4 | x8 | x8 | F,3 x5 | x2 A,2 x4 | x8 | %13
 E,2 F,2 x4 | x8 |] %15

